X: 21321
T: POLKA QUADRILLES. No. 1.--la Pantalon.
C: Copyright.--T. B. Brett.
%R: jig
B: W. Hamilton "Universal Tune-Book" Vol. 2 Glasgow 1846 p.132 #1
S: http://s3-eu-west-1.amazonaws.com/itma.dl.printmaterial/book_pdfs/hamiltonvol2web.pdf
Z: 2016 John Chambers <jc:trillian.mit.edu>
M: 6/8
L: 1/8
K: G
% - - - - - - - - - - - - - - - - - - - - - - - - -
c !segno!|\
cdc (Ac).e | ded b2g |\
~fef c'2f | (gf)g bgd |\
cdc (Ac).e | ded b2g |\
~fef c'2f | agg g3 H|]
fgf a2d | d^cc (cd).e |\
gag b2^c | edd (de).f |\
(bc'^c') (=c'b).a | (abc') (ba).g |\
fga efg | dec BA"^D.C."B |]
K: C=f
(ce).g (c'b).a | (ag)f e2z |\
(GBd) (fe)d | ed^c d2z |\
.c.e.g .e'.d'.c' | .b.a.a .a.b.c' |\
.g.e.a .g.f.e | .d.c.B c2"^D.C."z |]
% - - - - - - - - - - - - - - - - - - - - - - - - -

%%sep 1 1 500
%%sep 1 1 500

